svg/fluentui-system-icons/ic_fluent_filter_dismiss_16_regular.svg

<svg width="16" height="16" viewBox="0 0 16 16" fill="none" xmlns="http://www.w3.org/2000/svg">
<path d="M6.25716 9C6.57052 9.37943 6.93379 9.71611 7.33692 10H3.5C3.22386 10 3 9.77614 3 9.5C3 9.22386 3.22386 9 3.5 9H6.25716ZM5.02242 5C5.00758 5.16468 5 5.33146 5 5.5C5 5.66854 5.00758 5.83532 5.02242 6H1.5C1.22386 6 1 5.77614 1 5.5C1 5.22386 1.22386 5 1.5 5H5.02242ZM5.5 13C5.22386 13 5 13.2239 5 13.5C5 13.7761 5.22386 14 5.5 14H8.5C8.77614 14 9 13.7761 9 13.5C9 13.2239 8.77614 13 8.5 13H5.5ZM10.5 10C12.9853 10 15 7.98528 15 5.5C15 3.01472 12.9853 1 10.5 1C8.01472 1 6 3.01472 6 5.5C6 7.98528 8.01472 10 10.5 10ZM12.3536 3.64645C12.5488 3.84171 12.5488 4.15829 12.3536 4.35355L11.2071 5.5L12.3536 6.64645C12.5488 6.84171 12.5488 7.15829 12.3536 7.35355C12.1583 7.54882 11.8417 7.54882 11.6464 7.35355L10.5 6.20711L9.35355 7.35355C9.15829 7.54882 8.84171 7.54882 8.64645 7.35355C8.45118 7.15829 8.45118 6.84171 8.64645 6.64645L9.79289 5.5L8.64645 4.35355C8.45118 4.15829 8.45118 3.84171 8.64645 3.64645C8.84171 3.45118 9.15829 3.45118 9.35355 3.64645L10.5 4.79289L11.6464 3.64645C11.8417 3.45118 12.1583 3.45118 12.3536 3.64645Z" fill="#212121"/>
</svg>

<svg xmlns="http://www.w3.org/2000/svg" width="16" height="16"><path d="M6.257 9c.314.38.677.716 1.08 1H3.5a.5.5 0 0 1 0-1h2.757ZM5.022 5a5.57 5.57 0 0 0 0 1H1.5a.5.5 0 0 1 0-1h3.522Zm.478 8a.5.5 0 0 0 0 1h3a.5.5 0 0 0 0-1h-3Zm5-3a4.5 4.5 0 1 0 0-9 4.5 4.5 0 0 0 0 9Zm1.854-6.354a.5.5 0 0 1 0 .708L11.207 5.5l1.147 1.146a.5.5 0 0 1-.708.708L10.5 6.207 9.354 7.354a.5.5 0 1 1-.708-.708L9.793 5.5 8.646 4.354a.5.5 0 1 1 .708-.708L10.5 4.793l1.146-1.147a.5.5 0 0 1 .708 0Z"/></svg>
